X:1
T:Title
L:1/8
Q:1/4=120
M:12/8
K:Eb
V:1 treble nm="Grand Piano"
V:1
 G2 _G =G2 A G2 _G =G2 A | G2 E G3 F6 | F2 =E F6- F2 G | F2 D F3 E6 | E2 D C2 D E2 C D2 E | %5
w: ?????~????? * * * * * * *|||||
 F2 G B3 A6 | A2 A =B6- B2 _B | B2 A A3 G6 | c2 =B c6- c2 B | c2 d e2 d c3 B3 | B2 =A B6- B2 A | %11
w: ||||||
 B2 c d2 c B3 A3 | A2 F G6- G2 D | D2 E D3 C6 |] %14
w: |||

